assets/icons/emote/tired.svg

<?xml version="1.0" encoding="UTF-8" standalone="no"?>
<svg viewBox="0 0 24 24" width="24" height="24" version="1.1" id="svg836" sodipodi:docname="tired.svg" inkscape:version="1.1 (ce6663b3b7, 2021-05-25)"
   xmlns:inkscape="http://www.inkscape.org/namespaces/inkscape"
   xmlns:sodipodi="http://sodipodi.sourceforge.net/DTD/sodipodi-0.dtd"
   xmlns="http://www.w3.org/2000/svg"
   xmlns:svg="http://www.w3.org/2000/svg"
   xmlns:rdf="http://www.w3.org/1999/02/22-rdf-syntax-ns#"
   xmlns:cc="http://creativecommons.org/ns#"
   xmlns:dc="http://purl.org/dc/elements/1.1/">
   <metadata id="metadata842">
      <rdf:RDF>
         <cc:Work rdf:about="">
            <dc:format>image/svg+xml</dc:format>
            <dc:type rdf:resource="http://purl.org/dc/dcmitype/StillImage" />
         </cc:Work>
      </rdf:RDF>
   </metadata>
   <defs id="defs840" />
   <sodipodi:namedview pagecolor="#ffffff" bordercolor="#666666" borderopacity="1" objecttolerance="10" gridtolerance="10" guidetolerance="10" inkscape:pageopacity="0" inkscape:pageshadow="2" inkscape:window-width="1920" inkscape:window-height="1016" id="namedview838" showgrid="true" inkscape:zoom="27.5" inkscape:cx="0.89090909" inkscape:cy="10.818182" inkscape:window-x="0" inkscape:window-y="27" inkscape:window-maximized="1" inkscape:current-layer="svg836" inkscape:pagecheckerboard="0">
      <inkscape:grid type="xygrid" id="grid1437" />
      <inkscape:grid type="xygrid" id="grid1439" dotted="true" spacingx="0.5" spacingy="0.5" empspacing="10" />
   </sodipodi:namedview>
   <path id="path993" style="fill:#808080;fill-opacity:1;fill-rule:evenodd;stroke:none;stroke-width:0.75;stroke-linecap:square;stroke-linejoin:round;stroke-opacity:1" d="m 11.953613,2.6250146 a 9.375,9.375 0 0 0 -9.328613,9.3750004 9.375,9.375 0 0 0 9.375001,9.374999 9.375,9.375 0 0 0 9.374999,-9.374999 9.375,9.375 0 0 0 -9.374999,-9.3750004 9.375,9.375 0 0 0 -0.04639,0 z m 0.04639,1.25 a 8.125,8.125 0 0 1 8.125,8.1250004 8.125,8.125 0 0 1 -8.125,8.124999 8.125,8.125 0 0 1 -8.1249996,-8.124999 8.125,8.125 0 0 1 8.1249996,-8.1250004 z" />
   <path style="color:#000000;font-style:normal;font-variant:normal;font-weight:normal;font-stretch:normal;font-size:medium;line-height:normal;font-family:sans-serif;font-variant-ligatures:normal;font-variant-position:normal;font-variant-caps:normal;font-variant-numeric:normal;font-variant-alternates:normal;font-variant-east-asian:normal;font-feature-settings:normal;font-variation-settings:normal;text-indent:0;text-align:start;text-decoration:none;text-decoration-line:none;text-decoration-style:solid;text-decoration-color:#000000;letter-spacing:normal;word-spacing:normal;text-transform:none;writing-mode:lr-tb;direction:ltr;text-orientation:mixed;dominant-baseline:auto;baseline-shift:baseline;text-anchor:start;white-space:normal;shape-padding:0;shape-margin:0;inline-size:0;clip-rule:nonzero;display:inline;overflow:visible;visibility:visible;opacity:1;isolation:auto;mix-blend-mode:normal;color-interpolation:sRGB;color-interpolation-filters:linearRGB;solid-color:#000000;solid-opacity:1;vector-effect:none;fill:#808080;fill-opacity:1;fill-rule:evenodd;stroke:none;stroke-width:1;stroke-linecap:square;stroke-linejoin:miter;stroke-miterlimit:4;stroke-dasharray:none;stroke-dashoffset:0;stroke-opacity:1;color-rendering:auto;image-rendering:auto;shape-rendering:auto;text-rendering:auto;enable-background:accumulate;stop-color:#000000;stop-opacity:1" d="m 8.2499998,15.124985 h 7.5000002 c 0.34625,0 0.625,0.27875 0.625,0.625 0,0.34625 -0.27875,0.625 -0.625,0.625 h -7.5000002 c -0.3462501,0 -0.625,-0.27875 -0.625,-0.625 0,-0.34625 0.2787499,-0.625 0.625,-0.625 z" id="rect1440" />
   <path style="color:#000000;font-style:normal;font-variant:normal;font-weight:normal;font-stretch:normal;font-size:medium;line-height:normal;font-family:sans-serif;font-variant-ligatures:normal;font-variant-position:normal;font-variant-caps:normal;font-variant-numeric:normal;font-variant-alternates:normal;font-variant-east-asian:normal;font-feature-settings:normal;font-variation-settings:normal;text-indent:0;text-align:start;text-decoration:none;text-decoration-line:none;text-decoration-style:solid;text-decoration-color:#000000;letter-spacing:normal;word-spacing:normal;text-transform:none;writing-mode:lr-tb;direction:ltr;text-orientation:mixed;dominant-baseline:auto;baseline-shift:baseline;text-anchor:start;white-space:normal;shape-padding:0;shape-margin:0;inline-size:0;clip-rule:nonzero;display:inline;overflow:visible;visibility:visible;opacity:1;isolation:auto;mix-blend-mode:normal;color-interpolation:sRGB;color-interpolation-filters:linearRGB;solid-color:#000000;solid-opacity:1;vector-effect:none;fill:#808080;fill-opacity:1;fill-rule:nonzero;stroke:none;stroke-width:1;stroke-linecap:round;stroke-linejoin:miter;stroke-miterlimit:4;stroke-dasharray:none;stroke-dashoffset:0;stroke-opacity:1;color-rendering:auto;image-rendering:auto;shape-rendering:auto;text-rendering:auto;enable-background:accumulate;stop-color:#000000;stop-opacity:1" d="m 10.757324,10.281264 a 0.46875,0.46875 0 0 0 -0.15625,0.02441 l -3.7499998,1.25 a 0.46875,0.46875 0 0 0 -0.2954102,0.593261 0.46875,0.46875 0 0 0 0.5932617,0.29541 l 3.7500003,-1.249999 a 0.46875,0.46875 0 0 0 0.29541,-0.593262 0.46875,0.46875 0 0 0 -0.437012,-0.319824 z" id="path1441" />
   <path style="color:#000000;font-style:normal;font-variant:normal;font-weight:normal;font-stretch:normal;font-size:medium;line-height:normal;font-family:sans-serif;font-variant-ligatures:normal;font-variant-position:normal;font-variant-caps:normal;font-variant-numeric:normal;font-variant-alternates:normal;font-variant-east-asian:normal;font-feature-settings:normal;font-variation-settings:normal;text-indent:0;text-align:start;text-decoration:none;text-decoration-line:none;text-decoration-style:solid;text-decoration-color:#000000;letter-spacing:normal;word-spacing:normal;text-transform:none;writing-mode:lr-tb;direction:ltr;text-orientation:mixed;dominant-baseline:auto;baseline-shift:baseline;text-anchor:start;white-space:normal;shape-padding:0;shape-margin:0;inline-size:0;clip-rule:nonzero;display:inline;overflow:visible;visibility:visible;opacity:1;isolation:auto;mix-blend-mode:normal;color-interpolation:sRGB;color-interpolation-filters:linearRGB;solid-color:#000000;solid-opacity:1;vector-effect:none;fill:#808080;fill-opacity:1;fill-rule:nonzero;stroke:none;stroke-width:1;stroke-linecap:round;stroke-linejoin:miter;stroke-miterlimit:4;stroke-dasharray:none;stroke-dashoffset:0;stroke-opacity:1;color-rendering:auto;image-rendering:auto;shape-rendering:auto;text-rendering:auto;enable-background:accumulate;stop-color:#000000;stop-opacity:1" d="m 13.271973,10.281264 a 0.46875,0.46875 0 0 0 -0.466309,0.319824 0.46875,0.46875 0 0 0 0.29541,0.593262 l 3.75,1.25 a 0.46875,0.46875 0 0 0 0.593262,-0.295411 0.46875,0.46875 0 0 0 -0.29541,-0.593261 l -3.75,-1.25 a 0.46875,0.46875 0 0 0 -0.126953,-0.02441 z" id="path1443" />
</svg>

<svg width="24" height="24" xmlns="http://www.w3.org/2000/svg"><path style="fill:gray;fill-opacity:1;stroke:none;stroke-width:.75;stroke-linecap:square;stroke-linejoin:round;stroke-opacity:1" d="M11.954 2.625A9.375 9.375 0 0 0 2.625 12 9.375 9.375 0 0 0 12 21.375 9.375 9.375 0 0 0 21.375 12 9.375 9.375 0 0 0 12 2.625a9.375 9.375 0 0 0-.046 0zM12 3.875A8.125 8.125 0 0 1 20.125 12 8.125 8.125 0 0 1 12 20.125 8.125 8.125 0 0 1 3.875 12 8.125 8.125 0 0 1 12 3.875z"/><path style="color:#000;font-style:normal;font-variant:normal;font-weight:400;font-stretch:normal;font-size:medium;line-height:normal;font-family:sans-serif;font-variant-ligatures:normal;font-variant-position:normal;font-variant-caps:normal;font-variant-numeric:normal;font-variant-alternates:normal;font-variant-east-asian:normal;font-feature-settings:normal;font-variation-settings:normal;text-indent:0;text-align:start;text-decoration:none;text-decoration-line:none;text-decoration-style:solid;text-decoration-color:#000;letter-spacing:normal;word-spacing:normal;text-transform:none;writing-mode:lr-tb;direction:ltr;text-orientation:mixed;dominant-baseline:auto;baseline-shift:baseline;text-anchor:start;white-space:normal;shape-padding:0;shape-margin:0;inline-size:0;clip-rule:nonzero;display:inline;overflow:visible;visibility:visible;opacity:1;isolation:auto;mix-blend-mode:normal;color-interpolation:sRGB;color-interpolation-filters:linearRGB;solid-color:#000;solid-opacity:1;vector-effect:none;fill:gray;fill-opacity:1;stroke:none;stroke-width:1;stroke-linecap:square;stroke-linejoin:miter;stroke-miterlimit:4;stroke-dasharray:none;stroke-dashoffset:0;stroke-opacity:1;color-rendering:auto;image-rendering:auto;shape-rendering:auto;text-rendering:auto;enable-background:accumulate;stop-color:#000;stop-opacity:1" d="M8.25 15.125h7.5c.346 0 .625.279.625.625a.624.624 0 0 1-.625.625h-7.5a.624.624 0 0 1-.625-.625c0-.346.279-.625.625-.625z"/><path style="color:#000;font-style:normal;font-variant:normal;font-weight:400;font-stretch:normal;font-size:medium;line-height:normal;font-family:sans-serif;font-variant-ligatures:normal;font-variant-position:normal;font-variant-caps:normal;font-variant-numeric:normal;font-variant-alternates:normal;font-variant-east-asian:normal;font-feature-settings:normal;font-variation-settings:normal;text-indent:0;text-align:start;text-decoration:none;text-decoration-line:none;text-decoration-style:solid;text-decoration-color:#000;letter-spacing:normal;word-spacing:normal;text-transform:none;writing-mode:lr-tb;direction:ltr;text-orientation:mixed;dominant-baseline:auto;baseline-shift:baseline;text-anchor:start;white-space:normal;shape-padding:0;shape-margin:0;inline-size:0;clip-rule:nonzero;display:inline;overflow:visible;visibility:visible;opacity:1;isolation:auto;mix-blend-mode:normal;color-interpolation:sRGB;color-interpolation-filters:linearRGB;solid-color:#000;solid-opacity:1;vector-effect:none;fill:gray;fill-opacity:1;fill-rule:nonzero;stroke:none;stroke-width:1;stroke-linecap:round;stroke-linejoin:miter;stroke-miterlimit:4;stroke-dasharray:none;stroke-dashoffset:0;stroke-opacity:1;color-rendering:auto;image-rendering:auto;shape-rendering:auto;text-rendering:auto;enable-background:accumulate;stop-color:#000;stop-opacity:1" d="M10.757 10.281a.469.469 0 0 0-.156.025l-3.75 1.25a.469.469 0 0 0-.295.593.469.469 0 0 0 .593.295l3.75-1.25a.469.469 0 0 0 .295-.593.469.469 0 0 0-.437-.32zm2.515 0a.469.469 0 0 0-.466.32.469.469 0 0 0 .295.593l3.75 1.25a.469.469 0 0 0 .593-.295.469.469 0 0 0-.295-.593l-3.75-1.25a.469.469 0 0 0-.127-.025z"/></svg>
